!! 00008] TT[TB
!! Eigene Aufnahme
!!!OTL: Zhongshi de xing na xiangnian ni
!!!ARE: Heilongjiang, Nord
!! Ethnic Group: Dawoer
!! III, 49
!!!SCT: C0192
!!!YEM: Copyright 1995, estate of Helmut Schaffrath.
**kern
*ICvox
*Ivox
*M2/4
*k[f#]
*G:
{8.dd
16dd
8dd
8dd
=1
8a
8b
8.dd
16ee
=2
8b
8b
8a
16b
16a
=3
8g
8g
4g}
=4
{8b
16b
16b
8a
16b
16a
=5
8g
8g
8.a
16dd
=6
8b
8b
8a
16b
16a
=7
8g
8g
4g}
=8
{8g
8g
8.b
16dd
=9
8g
8g
8.a
16dd
=10
8b
8b
8a
16b
16a
=11
8g
8g
4g}
==
!!!AGN: Wuge, Hakumai. Biaoda aiqing
!! prosaisch. Saenger: Chao Lun Batou
!!!ONB: ESAC (Essen Associative Code) Database: CHINA
!!!AMT: simple duple
!!!AIN: vox
!!!EED: Helmut Schaffrath
!!!EEV: 1.0
*-
